!!!!SEGMENT: pl-kk--kk-i-58--005_anonim--missa-agnus-dei.krn
!!!id: 17xx:2244
!!!COM: Anonim
!!!COM-rism: pe30004985
!!!CDT:
!!!CNT:
!!!OTL: Missa – Agnus Dei
!!!PDT:
!!!SMS-siglum: PL-Kk
!!!SMS-shelfmark: Kk.I.58
!!!NIFC-rismID: 1001156758
!!!URL-scan: http://repozytorium.nifc.pl/skany/pl-kk-nut--i-58
!!!ONB-nifc: UWAGA: części Mszy: 1. Kyrie, 2. Et in terra, 3. Sanctus, 4. Benedictus, 5. Agnus Dei.
!!!SMS-variant: Baſso. PL Kk KK 35:0020
!!!SMS-altvar: Baſso. PL Kk KK 35:0026
**kern	**text	**kern	**text	**kern	**text	**kern	**text
*part4	*part4	*part3	*part3	*part2	*part2	*part1	*part1
*staff4	*staff4	*staff3	*staff3	*staff2	*staff2	*staff1	*staff1
*I"Baſso.	*	*I"Tenore	*	*I"Alto.	*	*I"Canto.	*
*I'B	*	*I'T	*	*I'A	*	*I'S	*
*clefF4	*	*clefC4	*	*clefC3	*	*clefC1	*
*k[b-]	*	*k[b-]	*	*k[b-]	*	*k[b-]	*
*M2/1	*	*M2/1	*	*M2/1	*	*M2/1	*
*met(c|)	*	*met(c|)	*	*met(c|)	*	*met(c|)	*
*2\right	*	*2\right	*	*2\right	*	*2\right	*
=1-	=1-	=1-	=1-	=1-	=1-	=1-	=1-
!LO:TX:t=P:problem:przy kluczu bemole [B-, b-]	!	!	!	!	!	!	!
!LO:TX:t=P:problem:oznaczenie tonacji: BB- B-	!	!	!	!	!	!	!
1F	A-	1c	A-	1f	A-	1a	A-
1C,	-gnus,	1c	-gus	1e	-gnus	(<2g/	-gnus
!	!	!	!	!	!	!LO:TX:t=P:problem:kreska pseudotaktowa	!
.	.	.	.	.	.	2cc\)	.
=2-	=2-	=2-	=2-	=2-	=2-	=2	=2-
2D/	DE-	2c\	De-	(2f\	DE-	2a\	DE-
1G	-I	2Bn\	.	2d\)	.	(2g\	.
.	.	2c\	-i	2e\	-I	2a\)	-I
!	!	!LO:TX:t=P:problem:kreska pseudotaktowa	!	!LO:TX:t=P:problem:kreska pseudotaktowa	!	!LO:TX:t=P:problem:kreska pseudotaktowa	!
2F\	Qui	2d\	qui	2f\	qui	2a\	qui
=3-	=3-	=3	=3-	=3	=3-	=3	=3-
2E\	tol-	2d\	tol-	2g\	tol-	2b-\	tol-
1A	-lis	1c	-lis	(2e\	.	1a	-lis
.	.	.	.	2f\)	-lis	.	.
!LO:TX:t=P:problem:kreska pseudotaktowa	!	!LO:TX:t=P:problem:kreska pseudotaktowa	!	!LO:TX:t=P:problem:kreska pseudotaktowa	!	!	!
2G\	pec-	2c\	pec-	2f\	pec-	2a\	pec-
=4	=4-	=4	=4-	=4	=4-	=4-	=4-
2F\	-ca-	1c	-ca-	1f	-ca-	1a	-ca-
1F	.	.	.	.	.	.	.
!	!	!	!	!	!	!LO:TX:t=P:problem:kreska pseudotaktowa	!
.	.	2Bn\	-ta	(2d\	.	1g	-ta
!	!	!LO:TX:t=P:problem:kreska pseudotaktowa	!	!	!	!	!
2E\	-ta	2c\	.	2e\)	-ta	.	.
=5-	=5-	=5	=5-	=5-	=5-	=5	=5-
1D	Mun-	2c\	Mun-	1f	Mun-	2a\	Mun-
.	.	2Bn\	.	.	.	2dd\	.
!LO:TX:t=P:problem:kreska pseudotaktowa	!	!LO:TX:t=P:problem:kreska pseudotaktowa	!	!LO:TX:t=P:problem:kreska pseudotaktowa	!	!LO:TX:t=P:problem:kreska pseudotaktowa	!
1C	-di	1c	-di	1e	-di	1g	-di
=6	=6-	=6	=6-	=6	=6-	=6	=6-
1C	A-	1c	A-	1e	A-	1g	A-
1F	-gn(us)	1c	-gnus	1f	-gnus	1a	-gnus
!LO:LB:g=original	!	!	!	!LO:LB:g=original	!	!LO:LB:g=original	!
=7-	=7-	=7-	=7-	=7-	=7-	=7-	=7-
1D	DE-	1c	De-	1f	De-	1a	De-
2E\	-I.	2c\	-i	2e\	-i	2g/	-i
!LO:TX:t=P:problem:kreska pseudotaktowa	!	!LO:TX:t=P:problem:kreska pseudotaktowa	!	!LO:TX:t=P:problem:kreska pseudotaktowa	!	!LO:TX:t=P:problem:kreska pseudotaktowa	!
2E\	Qui	2B-X\	qui	2c/	qui	2g/	qui
=8	=8-	=8	=8-	=8	=8-	=8	=8-
2F\	tol-	2A\	tol-	2c/	tol-	2f/	tol-
1F	-lis	1A	-lis	1c	-lis	1f	-lis
!	!	!LO:TX:t=P:problem:kreska pseudotaktowa	!	!	!	!	!
2D\	pec-	2A\	pec-	2d/	pec-	2f/	pec-
!LO:LB:g=original	!	!	!	!	!	!	!
=9-	=9-	=9	=9-	=9-	=9-	=9-	=9-
1G	-ca-	1B-	-ca-	1d	-ca-	1g	-ca-
!LO:TX:t=P:problem:kreska pseudotaktowa	!	!	!	!LO:TX:t=P:problem:kreska pseudotaktowa	!	!LO:TX:t=P:problem:kreska pseudotaktowa	!
1C	-ta	1B-	-ta	1e	-ta	1g	-ta
=10	=10-	=10-	=10-	=10	=10-	=10	=10-
2F\	Mun-	(>1A	Mun-	(>2c/	Mun-	2f/	Mun-
2BB-/	.	.	.	2d\)	.	1f	.
1C	.	1G)	.	1c	.	.	.
.	.	.	.	.	.	2e/	.
=11-	=11-	=11-	=11-	=11-	=11-	=11-	=11-
!LO:TX:t=P:problem:kreska pseudotaktowa	!	!LO:TX:t=P:problem:kreska pseudotaktowa	!	!LO:TX:t=P:problem:kreska pseudotaktowa	!	!LO:TX:t=P:problem:kreska pseudotaktowa	!
1F	-di	1A	-di.	1c	-di.	1f	-di
1F	A-	1c	A-	1f	A-	1a	A-
=12-	=12-	=12-	=12-	=12-	=12-	=12-	=12-
!LO:TX:a:t=d.	!	!	!	!	!	!	!
1D	-gnus	1d	-gnus	1f	-gnus	1a	-gnus
!	!	!	!	!LO:TX:t=P:problem:kreska pseudotaktowa	!	!	!
1G	DE-	1Bn	De-	1d	De-	1g	De-
=13-	=13-	=13-	=13-	=13	=13-	=13-	=13-
2C/	-I	2c\	-i	2e\	-i	2g/	-i
2C/	Qui	2c\	qui	2e\	qui	2g/	qui
!	!	!LO:TX:t=P:problem:kreska pseudotaktowa	!	!	!	!	!
!	!	!LO:LB:g=original	!	!	!	!	!
[2F\	tol-	1A	tol-	(2e\	tol-	2f/	tol-
!LO:TX:t=P:problem:kreska pseudotaktowa	!	!	!	!LO:TX:t=P:problem:kreska pseudotaktowa	!	!LO:TX:t=P:problem:kreska pseudotaktowa	!
2F\]	.	.	.	2d\)	.	2f/	-lis
!	!	!	!	!LO:LB:g=original	!	!LO:LB:g=original	!
=14	=14-	=14	=14-	=14	=14-	=14	=14-
2F\	-lis	2A\)	-lis	2c\	-lis	(2f/	pec-
2F\	pec-	2A\	pec-	2f\	pec-	2a\)	.
!	!	!	!	!	!	!LO:TX:t=P:problem:kreska pseudotaktowa	!
2D/	-ca-	1d	-ca-	2.f\	-ca-	(<1a	-ca-
2D/	-ta	.	.	.	.	.	.
.	.	.	.	8g\L	.	.	.
!	!	!	!	!LO:TX:t=P:problem:kreska pseudotaktowa	!	!	!
.	.	.	.	8f\J	.	.	.
=15-	=15-	=15-	=15-	=15	=15-	=15	=15-
2D/	pec-	2Bn\	-ta	1e	.	2g#X/)	.
!	!	!LO:TX:t=P:problem:kreska pseudotaktowa	!	!	!	!	!
2C/	-ca-	2c\	Mun-	.	.	1a	-ta
2D/	-ta	2.c\	.	2f\	.	.	.
!	!	!	!	!LO:TX:t=P:problem:kreska pseudotaktowa	!	!	!
2AA/	.	.	.	2e\	-ta	1a\	Mun-
.	.	8d\L	.	.	.	.	.
.	.	8c\J	.	.	.	.	.
=16-	=16-	=16-	=16-	=16	=16-	=16-	=16-
1E	Mun-	1Bn	.	1e	Mun-	.	.
.	.	.	.	.	.	2g#X/	.
!LO:TX:t=P:problem:kreska pseudotaktowa	!	!LO:TX:t=P:problem:kreska pseudotaktowa	!	!LO:TX:t=P:problem:kreska pseudotaktowa	!	!LO:TX:t=P:problem:kreska pseudotaktowa	!
1AA	-di	1c	-di	1e	-di	1a	-di
=17	=17-	=17	=17-	=17	=17-	=17	=17-
1A	Mi-	1c	Mi-	(2e\	Mi-	1a	Mi-
.	.	.	.	2f\)	.	.	.
(2A\	-se-	1Bn	-se-	1d	-se-	2f/	-se-
2G\)	.	.	.	.	.	2g/	.
=18-	=18-	=18-	=18-	=18-	=18-	=18-	=18-
!LO:LB:g=original	!	!	!	!	!	!	!
1F#X	-re-	1c	-re-	1e-X	-re-	1a	-re-
!LO:TX:t=P:problem:kreska pseudotaktowa	!	!LO:TX:t=P:problem:kreska pseudotaktowa	!	!LO:TX:t=P:problem:kreska pseudotaktowa	!	!LO:TX:t=P:problem:kreska pseudotaktowa	!
1G	-re	1Bn	-re	1d	-re	1g	-re
=19-	=19-	=19	=19-	=19	=19-	=19	=19-
1G	Mi-	1Bn	Mi-	1d	Mi-	1g	Mi-
(2G\	-se-	1c	-se-	(2e\	-se-	1a	-se-
2F\)	.	.	.	2f\)	.	.	.
=20-	=20-	=20-	=20-	=20-	=20-	=20-	=20-
1E	-re-	1d	-re-	1g	-re-	1b-	-re-
!LO:TX:t=P:problem:kreska pseudotaktowa	!	!LO:TX:t=P:problem:kreska pseudotaktowa	!	!LO:TX:t=P:problem:kreska pseudotaktowa	!	!LO:TX:t=P:problem:kreska pseudotaktowa	!
!	!	!LO:LB:g=original	!	!	!	!	!
1F	-re	1c	-re	1f	-re	1a	-re
!	!	!	!	!LO:LB:g=original	!	!LO:PB:g=original	!
=21	=21-	=21	=21-	=21	=21-	=21	=21-
*	*	*	*	*	*	*	*ij
1F	Mi-	1A	Mi-	1c	Mi-	1f	Mi-
2F\	-se-	2Bn\	-se-	(>2d/	-se-	1g	-se-
2E\	.	2c\	.	2e\)	.	.	.
=22-	=22-	=22-	=22-	=22-	=22-	=22-	=22-
1D	-re-	1c	-re-	1f	-re-	1a	-re-
!	!	!LO:TX:t=P:problem:kreska pseudotaktowa	!	!LO:TX:t=P:problem:kreska pseudotaktowa	!	!LO:TX:t=P:problem:kreska pseudotaktowa	!
1G	-re	1Bn	-re	1d	-re	1g	-re
*	*	*	*	*	*	*	*Xij
=23-	=23-	=23	=23-	=23	=23-	=23	=23-
!	!	!LO:TX:a:t=2	!	!	!	!	!
2C/	No-	0c	No-	2e\	No-	2g\	No-
2F\	.	.	.	1f	.	2a\	.
1C	-bis	.	.	.	.	1g	.
.	.	.	.	2e\	.	.	.
=24-	=24-	=24-	=24-	=24-	=24-	=24-	=24-
!LO:TX:t=P:problem:kreska pseudotaktowa	!	!	!	!LO:TX:t=P:problem:kreska pseudotaktowa	!	!LO:TX:t=P:problem:kreska pseudotaktowa	!
1F	.	1c,	-bis	1f	-bis	1a	-bis
1F	Mi-	1c	Mi-	1f	Mi-	1a	Mi-
=25-	=25-	=25-	=25-	=25-	=25-	=25-	=25-
!	!	!LO:TX:t=P:problem:kreska pseudotaktowa	!	!	!	!	!
1F	-se-	1c	-se-	1f	-se-	1a	-se-
1BB-X	-re-	1d	-re-	1f	-re-	1b-	-re-
=26-	=26-	=26-	=26-	=26-	=26-	=26-	=26-
1BBn	-re	1d	-re	1f	-re	1a	-re
2C/	no-	1c	No-	2e\	no-	2g/	no-
!	!	!	!	!LO:TX:t=P:problem:kreska pseudotaktowa	!	!	!
2F\	.	.	.	2f\	.	2a/	.
=27-	=27-	=27-	=27-	=27	=27-	=27-	=27-
!	!	!LO:TX:t=P:problem:kreska pseudotaktowa	!	!	!	!	!
!	!	!LO:TX:a:t=2	!	!	!	!	!
0C	.	0c	.	2f\	.	0g	.
.	.	.	.	4e\	.	.	.
.	.	.	.	4d\	.	.	.
.	.	.	.	1e	.	.	.
=28-	=28-	=28	=28-	=28-	=28-	=28-	=28-
00F;	-bis.	00c;	-bis.	00f;	-bis.	00a;	-bis
==	==	==	==	==	==	==	==
*-	*-	*-	*-	*-	*-	*-	*-
!!!system-decoration: [(s1,s2,s3,s4)]
!!!RDF**kern: > = above
!!!RDF**kern: < = below
!!!ENC: Kamil Watkowski
!!!END: 2021-08-03
